src/main/resources/icons/AllIcons/debugger/watchLastReturnValue_dark.svg

<!-- Copyright 2000-2021 JetBrains s.r.o. Use of this source code is governed by the Apache 2.0 license that can be found in the LICENSE file. -->
<svg xmlns="http://www.w3.org/2000/svg" width="16" height="16" viewBox="0 0 16 16">
  <g fill="none" fill-rule="evenodd">
    <path fill="#AFB1B3" d="M7.46500015 15.9300003C6.04838974 15.9300003 4.9000001 14.7816107 4.9000001 13.3650002 4.9000001 11.9483898 6.04838974 10.8000002 7.46500015 10.8000002 8.88161057 10.8000002 10.0300002 11.9483898 10.0300002 13.3650002 10.0300002 14.7816107 8.88161057 15.9300003 7.46500015 15.9300003zM7.46499991 14.731332C8.2188686 14.731332 8.82999992 14.1199027 8.82999992 13.3656665 8.82999992 12.6114302 8.2188686 12.000001 7.46499991 12.000001 6.71113123 12.000001 6.0999999 12.6114302 6.0999999 13.3656665 6.0999999 14.1199027 6.71113123 14.731332 7.46499991 14.731332zM13.3278574 15.9300003C11.911247 15.9300003 10.7628574 14.7816107 10.7628574 13.3650002 10.7628574 11.9483898 11.911247 10.8000002 13.3278574 10.8000002 14.7444678 10.8000002 15.8928575 11.9483898 15.8928575 13.3650002 15.8928575 14.7816107 14.7444678 15.9300003 13.3278574 15.9300003zM13.3250005 14.730001C14.0788692 14.730001 14.6900005 14.1188697 14.6900005 13.365001 14.6900005 12.6111323 14.0788692 12.000001 13.3250005 12.000001 12.5711318 12.000001 11.9600005 12.6111323 11.9600005 13.365001 11.9600005 14.1188697 12.5711318 14.730001 13.3250005 14.730001z"/>
    <rect width="2.2" height="1.246" x="9.297" y="12" fill="#AFB1B3"/>
    <path fill="#F98B9E" fill-opacity=".6" d="M11.981283,10.1457755 C11.3659085,10.4426127 10.8506747,10.9142292 10.5,11.4962067 C9.88755143,10.4797911 8.77316257,9.80000001 7.5,9.80000001 C5.98420702,9.80000001 4.69347008,10.7635794 4.20691516,12.1116123 C2.30002089,11.1068094 1,9.10522277 1,6.80000001 C1,3.48629151 3.6862915,0.800000012 7,0.800000012 C10.3137085,0.800000012 13,3.48629151 13,6.80000001 C13,8.0388014 12.6245709,9.18991663 11.981283,10.1457755 Z"/>
    <path fill="#231F20" fill-rule="nonzero" d="M9.59450286,8.97567988 L9.59012286,6.58122131 C9.61234659,6.26632826 9.53154974,5.95274988 9.35992429,5.68780416 C9.18531109,5.47944341 8.9206522,5.36847767 8.64965286,5.39000274 C8.45484724,5.38448371 8.2611569,5.42121698 8.08189857,5.49767702 C7.92881606,5.5673592 7.79699207,5.67645676 7.69991286,5.81380845 C7.5935202,5.97002596 7.51976105,6.14611501 7.48305571,6.33152274 C7.43477225,6.56585303 7.41206784,6.80473217 7.41534143,7.04396274 L7.41909571,8.97567988 L6.58097714,8.97567988 L6.57660143,6.58122131 C6.59870067,6.26665462 6.51877753,5.95334654 6.34869571,5.68780416 C6.17522915,5.47922461 5.91109785,5.36812638 5.64069571,5.39000702 C5.43724116,5.38337386 5.23503304,5.42416322 5.05006,5.50914988 C4.89185966,5.5881344 4.75939164,5.71049181 4.66812143,5.86193702 C4.56460738,6.03838312 4.49497392,6.23261757 4.46280571,6.43464131 C4.41936698,6.69193432 4.39903166,6.95259741 4.40204286,7.21351416 L4.42857143,8.97571416 L3.57203714,8.97571416 L3.57142857,4.68999988 L4.24305143,4.78985702 L4.36305143,5.46793416 L4.40885714,5.46793416 C4.47804569,5.34169461 4.5658923,5.22662133 4.66942857,5.12660274 C4.76842691,5.03156736 4.88004804,4.95062618 5.00114286,4.88606274 C5.12235343,4.82166462 5.25168837,4.77389199 5.38565714,4.74403416 C5.5216778,4.71346564 5.66067251,4.69809716 5.80008571,4.69821131 C6.11689714,4.68684548 6.43139705,4.75621408 6.71403143,4.89979845 C6.96249537,5.04056302 7.15335161,5.26444953 7.25301571,5.53206131 L7.28965429,5.53206131 C7.36461003,5.39398242 7.46106189,5.2687116 7.57539143,5.16094845 C7.68497743,5.05831307 7.80813949,4.97121363 7.94142571,4.90209131 C8.07398987,4.83342421 8.21472883,4.78184974 8.36027286,4.74860274 C8.50747814,4.71492662 8.65802191,4.69801902 8.80903,4.69820274 C9.25548951,4.66496332 9.69486131,4.82417937 10.0163843,5.13571416 C10.3216572,5.53530146 10.4668619,6.03441018 10.4235914,6.53539845 L10.4280271,8.97568416 L9.59450286,8.97567988 Z"/>
  </g>
</svg>

<svg xmlns="http://www.w3.org/2000/svg" width="16" height="16" viewBox="0 0 16 16"><rect id="frame" width="16" height="16" fill="none"/><g fill="none" fill-rule="evenodd"><path fill="#AFB1B3" d="M7.465 15.93a2.565 2.565 0 1 1 0-5.13 2.565 2.565 0 0 1 0 5.13zm0-1.199a1.365 1.365 0 1 0 0-2.73 1.365 1.365 0 0 0 0 2.73zm5.863 1.199a2.565 2.565 0 1 1 0-5.13 2.565 2.565 0 0 1 0 5.13zm-.003-1.2a1.365 1.365 0 1 0 0-2.73 1.365 1.365 0 0 0 0 2.73z"/><path fill="#AFB1B3" d="M9.297 12h2.2v1.246h-2.2z"/><path fill="#F98B9E" fill-opacity=".6" d="M11.981 10.146a3.515 3.515 0 0 0-1.481 1.35 3.501 3.501 0 0 0-6.293.615 6 6 0 1 1 7.774-1.966z"/><path fill="#231F20" fill-rule="nonzero" d="M9.595 8.976L9.59 6.58a1.455 1.455 0 0 0-.23-.893.84.84 0 0 0-.71-.298 1.35 1.35 0 0 0-.568.108.95.95 0 0 0-.382.316c-.106.156-.18.332-.217.518a3.306 3.306 0 0 0-.068.712l.004 1.932h-.838L6.577 6.58a1.466 1.466 0 0 0-.228-.893.833.833 0 0 0-.708-.298 1.312 1.312 0 0 0-.59.12.932.932 0 0 0-.383.352c-.103.176-.173.37-.205.573a4.375 4.375 0 0 0-.061.779l.027 1.762h-.857V4.69l.671.1.12.678h.046A1.43 1.43 0 0 1 5 4.886c.121-.064.25-.112.385-.142.136-.03.275-.046.414-.046a1.87 1.87 0 0 1 .914.202c.248.14.44.364.539.632h.037a1.48 1.48 0 0 1 .285-.371c.11-.103.233-.19.366-.259.133-.069.274-.12.42-.153.146-.034.297-.051.448-.05.446-.034.886.125 1.207.437.306.4.45.898.408 1.4l.004 2.44h-.833z"/></g></svg>
